assets/icons/kyc-error.svg

<svg width="110" height="110" viewBox="0 0 110 110" fill="none" xmlns="http://www.w3.org/2000/svg">
<path fill-rule="evenodd" clip-rule="evenodd" d="M33.4848 33.4853C31.5044 35.4657 31.5044 38.6765 33.4848 40.6569L69.3427 76.5147C71.323 78.4951 74.5339 78.4951 76.5142 76.5147C78.4946 74.5343 78.4946 71.3235 76.5142 69.3431L40.6564 33.4853C38.676 31.5049 35.4652 31.5049 33.4848 33.4853Z" fill="#FF6F71"/>
<path fill-rule="evenodd" clip-rule="evenodd" d="M33.4848 76.5147C31.5044 74.5343 31.5044 71.3235 33.4848 69.3431L69.3427 33.4853C71.323 31.5049 74.5339 31.5049 76.5142 33.4853C78.4946 35.4657 78.4946 38.6765 76.5142 40.6569L40.6564 76.5147C38.676 78.4951 35.4652 78.4951 33.4848 76.5147Z" fill="url(#paint0_linear_357_5858)"/>
<path fill-rule="evenodd" clip-rule="evenodd" d="M93.8909 93.8909C72.412 115.37 37.588 115.37 16.1091 93.8909C-5.36971 72.412 -5.36971 37.588 16.1091 16.1091C37.588 -5.36971 72.412 -5.36971 93.8909 16.1091C115.37 37.588 115.37 72.412 93.8909 93.8909ZM23.1802 86.8198C40.7538 104.393 69.2462 104.393 86.8198 86.8198C104.393 69.2462 104.393 40.7538 86.8198 23.1802C69.2462 5.6066 40.7538 5.6066 23.1802 23.1802C5.6066 40.7538 5.6066 69.2462 23.1802 86.8198Z" fill="url(#paint1_linear_357_5858)"/>
<defs>
<linearGradient id="paint0_linear_357_5858" x1="54.9995" y1="32" x2="54.9995" y2="78" gradientUnits="userSpaceOnUse">
<stop stop-color="#FF6F71"/>
<stop offset="1" stop-color="#FF6F71" stop-opacity="0"/>
</linearGradient>
<linearGradient id="paint1_linear_357_5858" x1="110" y1="0" x2="0" y2="110" gradientUnits="userSpaceOnUse">
<stop stop-color="#FF6F71"/>
<stop offset="1" stop-color="#FF6F71" stop-opacity="0"/>
</linearGradient>
</defs>
</svg>

<svg width="110" height="110" fill="none" xmlns="http://www.w3.org/2000/svg"><path fill-rule="evenodd" clip-rule="evenodd" d="M33.485 33.485a5.071 5.071 0 0 0 0 7.172l35.858 35.858a5.07 5.07 0 1 0 7.171-7.172L40.656 33.485a5.071 5.071 0 0 0-7.171 0z" fill="#FF6F71"/><path fill-rule="evenodd" clip-rule="evenodd" d="M33.485 76.515a5.071 5.071 0 0 1 0-7.172l35.858-35.858a5.07 5.07 0 1 1 7.171 7.172L40.656 76.515a5.071 5.071 0 0 1-7.171 0z" fill="url(#a)"/><path fill-rule="evenodd" clip-rule="evenodd" d="M93.89 93.89c-21.478 21.48-56.302 21.48-77.78 0-21.48-21.478-21.48-56.302 0-77.78 21.478-21.48 56.302-21.48 77.78 0 21.48 21.478 21.48 56.302 0 77.78zm-70.71-7.07c17.574 17.573 46.066 17.573 63.64 0 17.573-17.574 17.573-46.066 0-63.64-17.574-17.573-46.066-17.573-63.64 0-17.573 17.574-17.573 46.066 0 63.64z" fill="url(#b)"/><defs><linearGradient id="a" x1="54.999" y1="32" x2="54.999" y2="78" gradientUnits="userSpaceOnUse"><stop stop-color="#FF6F71"/><stop offset="1" stop-color="#FF6F71" stop-opacity="0"/></linearGradient><linearGradient id="b" x1="110" y1="0" x2="0" y2="110" gradientUnits="userSpaceOnUse"><stop stop-color="#FF6F71"/><stop offset="1" stop-color="#FF6F71" stop-opacity="0"/></linearGradient></defs></svg>
